src/assets/outline/Apple.svg

<?xml version="1.0" encoding="UTF-8"?>
<svg width="24" height="24" viewBox="0 0 24 24" xmlns="http://www.w3.org/2000/svg">
 <path d="m9.23 22.749h-0.04c-1.68-0.01-2.88-1.52-3.73-2.83-2.17-3.33-2.61-7.52-1.04-9.95 1.05-1.63 2.75-2.64 4.43-2.64 0.87 0 1.55 0.24003 2.15 0.46003 0.48 0.17 0.8899 0.31997 1.3199 0.31997 0.38 0 0.71-0.12997 1.13-0.28997 0.58-0.22 1.29-0.49003 2.32-0.49003 1.48 0 3.0001 0.79001 4.0601 2.13 0.14 0.17 0.19 0.40002 0.15 0.61002-0.04 0.22-0.18 0.4-0.37 0.51-1.13 0.62-1.7501 1.75-1.6601 3.03 0.09 1.3 0.8901 2.4 2.0901 2.85 0.19 0.07 0.35 0.22 0.43 0.41s0.0799 0.41-0.0101 0.59c-0.44 0.98-0.6599 1.43-1.2299 2.31-0.95 1.46-2.15 2.96-3.79 2.98-0.71 0-1.19-0.21-1.61-0.41-0.42-0.19-0.8301-0.34-1.4801-0.36-0.7 0-1.07 0.17-1.5 0.36-0.44 0.2-0.91995 0.41-1.62 0.41zm-0.38-13.92c-1.18 0-2.39 0.75002-3.17 1.95-1.06 1.64-1.05 5.11 1.04 8.32 0.65 1 1.52 2.14 2.49 2.15 0.36-0.01 0.63-0.11 0.99995-0.27 0.49-0.22 1.1-0.49 2.11-0.5 0.99-0.02 1.6301 0.27 2.1201 0.5 0.36 0.17 0.6 0.28 0.97 0.27 0.94-0.01 1.8499-1.23 2.5499-2.29 0.37-0.57 0.58-0.93 0.81-1.44-1.34-0.79-2.2199-2.18-2.3299-3.8-0.11-1.53 0.5099-2.96 1.6499-3.91-0.7-0.62-1.5299-0.97001-2.3299-0.97001-0.75 0-1.25 0.19002-1.78 0.39002-0.5 0.19-1.0201 0.38998-1.6701 0.38998-0.69 0-1.26-0.20999-1.82-0.39999-0.52995-0.21-1.04-0.39002-1.64-0.39002zm2.97-1.7h-0.0999c-0.35-0.01-0.65-0.26999-0.71-0.61999-0.21-1.13 0.1899-2.43 1.0599-3.49 0.8-0.97 2.1201-1.69 3.2901-1.77 0.41-0.02 0.74 0.25001 0.79 0.64001 0.17 1.17-0.2 2.45-1.03 3.52-0.81 1.05-2.1001 1.72-3.3001 1.72zm2.8301-4.18c-0.54 0.22-1.07 0.58999-1.42 1.02-0.33 0.4-0.6401 0.96001-0.7401 1.54 0.54-0.18 1.0801-0.54002 1.4501-1.02 0.2-0.25 0.58-0.82998 0.71-1.54z"/>
</svg>

<svg width="24" height="24" viewBox="0 0 24 24"  xmlns="http://www.w3.org/2000/svg">
<path d="M9.23005 22.7491C9.22005 22.7491 9.21005 22.7491 9.19005 22.7491C7.51005 22.7391 6.31005 21.2291 5.46005 19.9191C3.29005 16.5891 2.85005 12.3991 4.42005 9.96909C5.47005 8.33909 7.17005 7.32907 8.85005 7.32907C9.72005 7.32907 10.4001 7.5691 11.0001 7.7891C11.4801 7.9591 11.89 8.10907 12.32 8.10907C12.7 8.10907 13.03 7.9791 13.45 7.8191C14.03 7.5991 14.74 7.32907 15.77 7.32907C17.25 7.32907 18.7701 8.11908 19.8301 9.45908C19.9701 9.62908 20.0201 9.8591 19.9801 10.0691C19.9401 10.2891 19.8001 10.4691 19.6101 10.5791C18.4801 11.1991 17.86 12.3291 17.95 13.6091C18.04 14.9091 18.8401 16.0091 20.0401 16.4591C20.2301 16.5291 20.3901 16.6791 20.4701 16.8691C20.5501 17.0591 20.55 17.2791 20.46 17.4591C20.02 18.4391 19.8001 18.8891 19.2301 19.7691C18.2801 21.2291 17.0801 22.7291 15.4401 22.7491C14.7301 22.7491 14.2501 22.5391 13.8301 22.3391C13.4101 22.1491 13 21.9991 12.35 21.9791C11.65 21.9791 11.28 22.1491 10.85 22.3391C10.41 22.5391 9.93005 22.7491 9.23005 22.7491ZM8.85005 8.82907C7.67005 8.82907 6.46005 9.57909 5.68005 10.7791C4.62005 12.4191 4.63005 15.8891 6.72005 19.0991C7.37005 20.0991 8.24005 21.2391 9.21005 21.2491C9.57005 21.2391 9.84005 21.1391 10.21 20.9791C10.7 20.7591 11.31 20.4891 12.32 20.4791C13.31 20.4591 13.9501 20.7491 14.4401 20.9791C14.8001 21.1491 15.0401 21.2591 15.4101 21.2491C16.3501 21.2391 17.26 20.0191 17.96 18.9591C18.33 18.3891 18.54 18.0291 18.77 17.5191C17.43 16.7291 16.5501 15.3391 16.4401 13.7191C16.3301 12.1891 16.95 10.7591 18.09 9.80909C17.39 9.18909 16.5601 8.83908 15.7601 8.83908C15.0101 8.83908 14.5101 9.0291 13.9801 9.2291C13.4801 9.4191 12.96 9.61908 12.31 9.61908C11.62 9.61908 11.05 9.40909 10.49 9.21909C9.96005 9.00909 9.45005 8.82907 8.85005 8.82907ZM11.82 7.12909C11.79 7.12909 11.7501 7.12909 11.7201 7.12909C11.3701 7.11909 11.0701 6.8591 11.0101 6.5091C10.8001 5.3791 11.2 4.07908 12.07 3.01908C12.87 2.04908 14.1901 1.32909 15.3601 1.24909C15.7701 1.22909 16.1001 1.4991 16.1501 1.8891C16.3201 3.0591 15.9501 4.33909 15.1201 5.40909C14.3101 6.45909 13.02 7.12909 11.82 7.12909ZM14.6501 2.9491C14.1101 3.1691 13.5801 3.53909 13.2301 3.96909C12.9001 4.36909 12.59 4.9291 12.49 5.5091C13.03 5.3291 13.5701 4.96908 13.9401 4.48908C14.1401 4.23908 14.5201 3.6591 14.6501 2.9491Z" />
</svg>
